src/svg/cancel.svg

<svg height="1000" width="785.714" xmlns="http://www.w3.org/2000/svg"><path d="M724.284 737.74q0 22.32 -15.624 37.944l-75.888 75.888q-15.624 15.624 -37.944 15.624t-37.944 -15.624l-164.052 -164.052 -164.052 164.052q-15.624 15.624 -37.944 15.624t-37.944 -15.624l-75.888 -75.888q-15.624 -15.624 -15.624 -37.944t15.624 -37.944l164.052 -164.052 -164.052 -164.052q-15.624 -15.624 -15.624 -37.944t15.624 -37.944l75.888 -75.888q15.624 -15.624 37.944 -15.624t37.944 15.624l164.052 164.052 164.052 -164.052q15.624 -15.624 37.944 -15.624t37.944 15.624l75.888 75.888q15.624 15.624 15.624 37.944t-15.624 37.944l-164.052 164.052 164.052 164.052q15.624 15.624 15.624 37.944z"/></svg>

<svg height="1000" width="785.7" xmlns="http://www.w3.org/2000/svg"><path d="M724.3 737.7q0 22.3 -15.6 38l-75.9 75.9q-15.6 15.6 -37.9 15.6t-38 -15.6l-164 -164.1L228.8 851.6q-15.6 15.6 -38 15.6t-37.9 -15.6L77 775.7Q61.4 760 61.4 737.7T77 699.8L241.1 535.7 77 371.7Q61.4 356 61.4 333.7T77 295.8l75.9 -75.9q15.6 -15.7 37.9 -15.7t38 15.7l164.1 164 164 -164q15.6 -15.7 38 -15.7t37.9 15.7l75.9 75.9q15.6 15.6 15.6 37.9t-15.6 38l-164.1 164 164.1 164.1q15.6 15.6 15.6 37.9z"/></svg>
